packages/kaspersky-hexa-ui-icons/src/iconsSVGs/16/Telegram.svg

<svg width="16" height="16" viewBox="0 0 16 16" fill="none" xmlns="http://www.w3.org/2000/svg">
<path fill-rule="evenodd" clip-rule="evenodd" d="M2.21196 7.22696C5.81472 5.6573 8.21713 4.62248 9.41918 4.1225C12.8513 2.69497 13.5644 2.447 14.0293 2.43881C14.1315 2.43701 14.3601 2.46234 14.5082 2.58249C14.6332 2.68394 14.6676 2.82099 14.684 2.91718C14.7005 3.01336 14.721 3.23248 14.7047 3.40369C14.5187 5.35787 13.714 10.1001 13.3045 12.2889C13.1313 13.215 12.7902 13.5255 12.46 13.5559C11.7423 13.6219 11.1973 13.0816 10.5022 12.6259C9.41447 11.9129 8.79998 11.4691 7.74417 10.7733C6.524 9.96924 7.31499 9.52731 8.01036 8.80506C8.19234 8.61605 11.3545 5.73985 11.4157 5.47893C11.4233 5.4463 11.4304 5.32466 11.3582 5.26043C11.2859 5.1962 11.1793 5.21817 11.1023 5.23564C10.9932 5.2604 9.25556 6.40891 5.88939 8.68117C5.39617 9.01985 4.94942 9.18487 4.54916 9.17622C4.10789 9.16669 3.25908 8.92673 2.62807 8.72161C1.85412 8.47003 1.23899 8.33702 1.29256 7.90975C1.32046 7.68721 1.62692 7.45961 2.21196 7.22696Z" fill="black"/>
</svg>

<svg xmlns="http://www.w3.org/2000/svg" width="16" height="16" fill="none" viewBox="0 0 16 16"><path fill="#000" fill-rule="evenodd" d="M2.212 7.227q5.404-2.3545 7.2072-3.1045c3.4321-1.4275 4.1452-1.6755 4.6101-1.6837.1022-.0018.3308.0235.4789.1437.125.1014.1594.2385.1758.3347s.037.3153.0207.4865c-.186 1.9542-.9907 6.6964-1.4002 8.8852-.1732.9261-.5143 1.2366-.8445 1.267-.7177.066-1.2627-.4743-1.9578-.93-1.0877-.713-1.7022-1.1568-2.758-1.8526-1.2202-.804-.4292-1.246.2662-1.9682.182-.189 3.3441-3.0652 3.4053-3.3262.0076-.0326.0147-.1542-.0575-.2185-.0723-.0642-.1789-.0422-.2559-.0248q-.1636.0372-5.213 3.4456-.7397.508-1.3401.495c-.4413-.0095-1.2901-.2495-1.9211-.4546-.774-.2516-1.3891-.3846-1.3355-.8119q.0418-.3337.9194-.6827" clip-rule="evenodd"/></svg>
